img/checkbox-on-current.svg

<svg width="24" height="23" viewBox="0 0 24 23" fill="none" xmlns="http://www.w3.org/2000/svg">
<path d="M21.1624 20C21.1624 20.542 20.7044 21 20.1624 21H3.16241C2.62041 21 2.16241 20.542 2.16241 20V3C2.16241 2.458 2.62041 2 3.16241 2H20.0704L21.6554 0.415C21.2034 0.146542 20.6881 0.00329969 20.1624 0H3.16241C1.51241 0 0.162415 1.35 0.162415 3V20C0.162415 21.65 1.51241 23 3.16241 23H20.1624C21.8124 23 23.1624 21.65 23.1624 20V10.171L21.1624 12.171V20Z" fill="#B5B5B5"/>
</svg>

<svg width="24" height="23" fill="none" xmlns="http://www.w3.org/2000/svg"><path d="M21.16 20c0 .54-.46 1-1 1h-17c-.54 0-1-.46-1-1V3c0-.54.46-1 1-1h16.91L21.66.42a2.96 2.96 0 00-1.5-.42h-17a3 3 0 00-3 3v17a3 3 0 003 3h17a3 3 0 003-3v-9.83l-2 2V20z" fill="#B5B5B5"/></svg>
